images/star.svg

<?xml version="1.0" encoding="UTF-8"?>
<svg width="17px" height="16px" viewBox="0 0 17 16" version="1.1" xmlns="http://www.w3.org/2000/svg" xmlns:xlink="http://www.w3.org/1999/xlink">
    <!-- Generator: Sketch 55.2 (78181) - https://sketchapp.com -->
    <title>Icon / Star / Open</title>
    <desc>Created with Sketch.</desc>
    <g id="Page-1" stroke="none" stroke-width="1" fill="none" fill-rule="evenodd">
        <g id="star-open" fill-rule="nonzero" stroke="#050404">
            <g id="Icon-/-Star-/-Open">
                <path d="M13.1401309,14.8521217 L12.2607713,9.87589775 L15.9690319,6.36757852 L10.8426127,5.64458114 L8.53333333,1.1031272 L6.22405401,5.64458114 L1.09763479,6.36757852 L4.80589533,9.87589775 L3.92653581,14.8521217 L8.53333333,12.5014371 L13.1401309,14.8521217 Z" id="Star"></path>
            </g>
        </g>
    </g>
</svg>

<svg width="17" height="16" xmlns="http://www.w3.org/2000/svg"><path d="M13.14 14.852l-.88-4.976 3.709-3.508-5.126-.723-2.31-4.542-2.309 4.542-5.126.723 3.708 3.508-.88 4.976 4.607-2.35 4.607 2.35z" stroke="#050404" fill="none"/></svg>
